X: 28536
T: Munster, The
R: jig
M: 6/8
K: Gmajor
D|:G3 AGA|B2g gdB|GAB c2A|BGE EGD|
G3 AGA|B2g gdB|c2A B/c/dB|1 AGF G2D:|2 AGF G2f||
|:g3 efg|afd edB|g3 efg|afd def|
g3 a2f|gfe fdB|c2A B/c/dB|1 AGF G2f:|2 AGF G3||

